!!!OTL: 303. Ode an die Freude.
!!!COM: Volksweise
!!!ODT: 1801
!!!ARE: Europa, Mitteleuropa, Deutschland
!!!SCT: B0303
!!!TXL: @@DE
!!!YEM: Copyright 1995, estate of Helmut Schaffrath.
**kern	**text
*ICvox	*
*Ivox	*
*M4/4	*
*met(c)	*
*clefG2	*
*k[b-e-]	*
*B-:	*
!LO:TX:a:t=Einʒelne.	!
!LO:TX:a:t=Mäßig bewegt.	!
{8.f	Freu-
16f	-de,
=1	=1
4b-'	ſchö-
4b-'	-ner
4cc'	Göt-
4cc'	-ter-
=2	=2
8.ddL	-fun-
16ee-J	.
4ff	-ken,
4r}	.
{8.ff	Toch-
16dd	-ter
=3	=3
8ddL	aus
8ccJ	.
8ee-L	E-
8ccJ	.
4b-	-ly-
4a	-ſi-
=4	=4
2b-	-um!
4r}	.
{8.f	Wir
16f	be-
=5	=5
4b-'	-tre-
4b-'	-ten
4cc'	feu-
4cc'	-er-
=6	=6
8.ddL	-trunken,
16ee-J	.
4ff	.
4r}	.
{8.ff	Himm-
16dd	-li-
=7	=7
8ddL	-ſche,
8ccJ	.
8ee-L	dein
8ccJ	.
4b-	Hei-
4a	-lig-
=8	=8
2b-	-thum.
4r}	.
{8.a	Dei-
16b-	-ne
=9	=9
4.cc	Ʒau-
8cc	-ber
4.dd	bin-
8dd	-den
=10	=10
8.ee-L	wie-
16ddJ	.
4ee-	-der,
4r}	.
{8.cc	was
16cc	die
=11	=11
4.dd	Mo-
8dd	-de
4.een	ſtreng
8ee	ge-
=12	=12
2ff	-theilt
4r}	.
{8.f	Bett-
16f	-ler
=13	=13
4b-'	wer-
4b-'	-den
4cc'	Für-
4cc'	-ſten-
=14	=14
8.ddL	-brü-
16ee-J	.
4ff	-der*,
4r}	.
{8.ff	wo
16ee-	dein
=15	=15
8ddL	ſanf-
8ccJ	.
8ee-L	-ter
8ccJ	.
4b-	Flü-
4a	-gel
=16	=16
2b-	weilt.
=||	=||
!LO:TX:a:t=Chor.	!
4r}	.
{8.f	Seid
16f	um-
=17	=17
4.b-	-ſchlun-
8b-	-gen,
4.b-	Mil-
8b-	-li-
=18	=18
8.b-L	-o-
16aJ	.
4a	-nen!
4r}	.
{8.f	Die-
16a	-ſen
=19	=19
4.cc	Ruß
8cc	der
4.b-	gan-
8cc	-ʒen
=20	=20
(4cc	Welt!
4dd)	.
4r}	.
{8.f	Brü-
16f	-der,
=21	=21
4.b-	ü-
8a	-berm
8gL	Ster-
8fJ	.
8e-L	-nen-
8dJ	.
=22	=22
2g}	-ʒelt
{4e-	muß
4d	ein
=23	=23
4.c	lie-
16dL	-ber
16e-J	.
4.f	Va-
8f	-ter
=24	=24
4f	woh-
4B-	-nen,
4r}	.
{8.b-	muß
16b-	ein
=25	=25
4.cc	lie-
8b-	-ber
4.cc	Va-
8dd	-ter
=26	=26
8.ccL	woh-
16b-J	.
4b-	-nen.
4r}	.
==	==
!!!AGN: Stimmungs - Lied, Freude
!!!GTL: Lieder der Freude und Geseligkeit
!!!ONB: ESAC (Essen Associative Code) Database: BOEHME
!!!AMT: simple quadruple
!!!AIN: vox
!!!EED: Helmut Schaffrath
!!!EEV: 1.0
!!@@COMMENT:"!!*Später: Alle Menſchen werden Brüder.
!!Dieſe hochſchätʒbare, chriſtliche Weltanſchauung bekundende, aber auch etwas phraſenhafte Ode
!!an die Freude hat Schiller 1785 bei ſeinem Aufenthalte in Gohlis bei Leipʒig gedichtet. Obſchon das 
!!herrliche Gedicht auch Tauſende von Leſern und Sängern entʒückt. ſelbſt Beethoven ʒur
!!9. Symphonie begeiſtert hat, beʒeichnet Schiller ſelbſt es als ein "ſchlechtes Gedicht". - Mehr als
!!hundert Melodien giebts daʒu. Jch habe die verbreitetſte Volksweiſe gegeben.
!!* Letʒte Strophe in ſpäteren Ausgaben von Schiller ſelbſt weggelaſſen."
!!@@END:
!!!Text: F. Schiller
!!!URL-scan: https://archive.org/details/BoehmeVtLieder1895/page/n253/mode/2up
!!!ENC: Anna Maria Matuszewska
!!!EEV: 2024/04/07
*-	*-
